Adwaita/scalable/categories/applications-games-symbolic.svg

<?xml version="1.0" encoding="UTF-8"?>
<svg height="16px" viewBox="0 0 16 16" width="16px" xmlns="http://www.w3.org/2000/svg">
    <path d="m 2.246094 3 c -0.152344 0 -0.257813 0.074219 -0.292969 0.203125 l -1.691406 8.621094 c -0.2265628 0.847656 1.558593 1.855469 2.738281 1.175781 l 2.75 -4 h 4.5 l 2.75 4 c 1.179688 0.679688 2.964844 -0.328125 2.738281 -1.175781 l -1.695312 -8.621094 c -0.035157 -0.128906 -0.136719 -0.203125 -0.289063 -0.203125 z m 2.003906 1 h 0.5 c 0.136719 0 0.25 0.113281 0.25 0.25 v 0.75 h 0.75 c 0.136719 0 0.25 0.113281 0.25 0.25 v 0.5 c 0 0.136719 -0.113281 0.25 -0.25 0.25 h -0.75 v 0.75 c 0 0.136719 -0.113281 0.25 -0.25 0.25 h -0.5 c -0.140625 0 -0.25 -0.113281 -0.25 -0.25 v -0.75 h -0.75 c -0.140625 0 -0.25 -0.113281 -0.25 -0.25 v -0.5 c 0 -0.136719 0.109375 -0.25 0.25 -0.25 h 0.75 v -0.75 c 0 -0.136719 0.109375 -0.25 0.25 -0.25 z m 6.25 0.75 c 0.414062 0 0.75 0.335938 0.75 0.75 s -0.335938 0.75 -0.75 0.75 s -0.75 -0.335938 -0.75 -0.75 s 0.335938 -0.75 0.75 -0.75 z m 2 1 c 0.414062 0 0.75 0.335938 0.75 0.75 s -0.335938 0.75 -0.75 0.75 s -0.75 -0.335938 -0.75 -0.75 s 0.335938 -0.75 0.75 -0.75 z m 0 0" fill="#2e3436"/>
</svg>

<svg xmlns="http://www.w3.org/2000/svg" width="16" height="16"><path d="M2.246 3c-.153 0-.256.073-.291.203L.26 11.824C.035 12.67 1.821 13.681 3 13l2.75-4h4.5L13 13c1.178.68 2.965-.33 2.738-1.176l-1.693-8.62c-.035-.131-.14-.204-.291-.204zM4.25 4h.5a.25.25 0 01.25.25V5h.75a.25.25 0 01.25.25v.5a.25.25 0 01-.25.25H5v.75a.25.25 0 01-.25.25h-.5A.25.25 0 014 6.75V6h-.75A.25.25 0 013 5.75v-.5A.25.25 0 013.25 5H4v-.75A.25.25 0 014.25 4zm6.25.75a.75.75 0 110 1.5.75.75 0 010-1.5zm2 1a.75.75 0 110 1.5.75.75 0 010-1.5z" color="#000" overflow="visible" fill="#2e3436"/></svg>
